X:469
T:Wagon Wheel
C:Arrangement by Tilbert
N:Transcribed by 
R:bluegrass
L:1/8
Q:1/4=150
M:4/4
K:C
"A"z2 A^F AB Ae | c^c ee cB Ac | "E"B2 BA B^c Bc | "D"d^c de ^fa a2 | "A"ab a^f ed ^cA | 
c^c ee cB A2 | "E"[B^G][BG] [B2G2] B^c BA | "D"F^F AA FE DB, | "A"A,2 DB, D^F Ae | 
^fa a2 ab a2 | "E"ab b^c' b2 e^f | "D"^fa fe dB A2 | "A"A^F AB Ae c^c | ee ^cB A2 AB | 
"E"B2 B^c BA F^F | "D"AA F^F AA =F^F | "A"AA AB A4 | z8 | z8 | z8 | z8 | z8 | 
z8 | z8 | 


